X:251
T: Die Bauern von St. Poelten
N: A0296
O: Europa, Mitteleuropa, Deutschland
N: Handschriftlich bei Werlin 1646. III. Bd. S. 1968.
R: Romanze, Ballade, Lied
M: 3/1
L: 1/4
K: A
e2 | =c4A4e2d2 | =c3Bc2A4
e2 | d4B4=c2d2 | e12 |
e4d4=c2d2 | B8z2
B2 | d4B4e2d2 | e3de2=c4
d2 | e4=c4d2B2 | A12 |
e4=c4d2B2 | A8z2

@@@ Tune index: 251
